**kern	**kern	**dynam
*part1	*part1	*part1
*staff2	*staff1	*
*I"Piano	*	*
*clefG2	*clefG2	*
*k[b-]	*k[b-]	*
=1	=1	=1
([2GG [2D 2F#X	12r	>
.	12AL	.
.	12dJ	.
.	12aL	.
.	12d	.
.	12AJ	.
=	=	=
4GG]) 4D] 4G	12b-L	.
.	12d	.
.	12B-J	.
4BB-	12gL	.
.	12d	.
.	12GJ	.
=	=	=
2C	12r	.
.	12AL	.
.	12cJ	.
.	12fL	.
.	12c	.
.	12AJ	.
=	=	=
2BBn	12r	.
.	12A-XL<	.
.	12dJ	.
.	12fL	.
.	12d	.
.	12A-J<	.
=	=	=
2C	12rccccc	.
.	12AnL<	.
.	12cJ<	.
.	12fL	.
.	12c<	.
.	12AJ<	.
=	=	=
!	!LO:TX:a:i:t=dimin.	!
2CC	12B-L<	.
.	12c<	.
.	12fJ	.
.	12B-L<	.
.	12c<	.
.	12eJ	.
=	=	=
!	!	!LO:DY:a
2FF	12rGG	[ < pp
.	12AL<	.
.	12cJ<	.
.	12fL	.
.	12c<	.
.	12AJ<	.
=	=	=
*-	*-	*-
!!!system-decoration: {(s1,s2)}
!!!RDF**kern: < = below
